X:1
T:Aspra fu la ferita
T:Aspra fu la ferita
T:Claudio Saracini
T:Source : Le secondo Musische per cantar e sonar---Venetia---A.Vincenti---1620. Editor : André Vierendeels (25/11/15).
T:Notes : Original clefs :C1, F4 Editorial accidentals above the staff Figures above the BC are notated in original print 
C:Claudio Saracini
%%score 1 2
L:1/8
Q:1/4=89
M:4/4
K:C
V:1 treble nm="Soprano" snm="S"
V:2 bass nm="BC" snm="BC"
V:1
 dd d4 AB | ^c4 c4 | ee e4 ^GA | B8 | A8 | A A2 A A3 G | G4 ^G3 G | A4- A D/E/ F/E/F/D/ | ^C4 C4 | %9
w: A- spra fu la fe-|ri- ta,|che mi tol- se la|vi-|ta,|che mi ne- go mo-|ren- * do'il|dir _ ben _ _ _ _ _|mi- o,|
 c c2 c c3 B | B4- B3 B- | d4- d A/B/ c/B/c/A/ | ^G8 | ^G8 | z e A4 A2 | %15
w: che mi ne- go mo-|ren _ do'il|dir _ ben- * * * * *|mi-|o,|io va- do|
 z d F/F/F/F/ F/F/F/F/- F/F/F/F/ | ^F3 z EFGF | E8 | D8 | z AAA>AA e2- | e6 B2 | B6 c2 | A8- | %23
w: io mo- * * * * * * * * * * *|ro à _ _ _|Di-|o,|E fu so- la ga- gion|_ del|mio mo-|ri-|
 A4 ^G4 | z2 c2 A4 | z2 d2 B4 | z d^FG AcBA | G4 G4 | d8- | d4 ^c4 | z Bcd ecBA | B8 | A8 | %33
w: * re,|A- mor,|A- mor,|che pat- teg- gio con la mia|sor- te,|Cru-|* del|in un bai en dar mi la|mor-|te,|
 z EFG AFED | E8 | D8 |] %36
w: in- un bai en dar mi la|mor-|te.|
V:2
 ^F,4 D,4 |"^#" A,,8 | ^C,4 E,4 | E,8 | A,,8 | F,,2 G,,2 A,,2 B,,2 | C,2 D,2 E,4 | ^C,4 _B,,4 | %8
"^#" A,,8 | C,2 D,2 E,2 ^F,2 | G,8 | G,4 F,4 |"^-natural""^-natural" E,8 | E,,8 | ^C,8 | %15
"^-natural" D,6 D,2- |"^#" D,4 A,,4 | A,,8 | D,8 | ^C,8- | C,4 ^G,4- | G,8 | F,8 | E,8 | F,,8 | %25
 G,,8 | z G,D,E, F,F,, G,,A,, | C,4 C,4 | _B,,8 | A,,8 | E,8- | E,8 | A,,8 | A,,8- | A,,8 | D,8 |] %36

